X: 1
T: String Quartet in E\b major opus 1 no 2 mvt 3
C: Franz Joseph Haydn
%%abc-version 2.0
%%abcx-abcm2ps-target-version 5.9.1 (29 Sep 2008)
%%abc-creator hum2abc beta
%%abcx-conversion-date 2021/02/14 14:38:20
%%abc-copyright Copyright (c) 1994, 2000 Center for Computer Assisted Research in the Humanities
%%abc-edited-by Frances Bennion
%%abcx-initial-encoding-date 1997/04/15
%%gracespace 0 6 6
%%humdrum-veritas 4286977004
%%humdrum-veritas-data 2683944480
%%linebreak <none>
%%barnumbers 0
L: 1/16
M: 4/4
N: Derived from op01n2-03.krn
Q: "Adagio"
%%staves [1 2 3 4]
V: 1
V: 2
V: 3 clef=alto
V: 4 clef=bass
K: Bb
[V:1]b4 B2d2 (3:2:2f2-f//g/f/e/d2 z2[I:setbarnb2] |
[V:2]zFFF zFFF zAAA zBBB |
[V:3]zDDD zDDD zCCC zFFD |
[V:4]B,2z2 B,,2z2 F,2z2 B,,2z2 |
[V:1]g2G4 ec (3:2:2A2-A//c/B/A/B4 |
[V:2]zGGG zGGG zFFF zDDD |
[V:3]zB,B,B, zEEE zCCC zB,B,B, |
[V:4]E,2z2 E,2z2 F,2z2 B,,2z2 |
[V:1]d'4 b2g2 =e2>f2 g2z2 |
[V:2]zBBB zBBB zBBB zBBB |
[V:3]zFFF zGGG zGGG z=EEE |
[V:4]B,,2z2 B,,2z2 C,2z2 C,2z2 |
[V:1]c'4 a2f2 d2>e2 f2z2 |
[V:2]zAAA zccc zBBB zBBB |
[V:3]zFFF zFFF zFFF zDDD |
[V:4]F,2z2 F,2z2 B,2z2 B,,2z2 |
[V:1]=egzg/e/ bgzg/e/ fccc cccc |
[V:2]zBBB zBBB zABA BABA |
[V:3]z=EEE zEEE zFGF GFGF |
[V:4]C,2z2 C,2z2 C,2z2 C,2z2 |
[V:1]cfza/f/ c'aza/f/ gccc cccc |
[V:2]zAAA zAAA zGAG AGAG |
[V:3]zFFF zFFF z=EFE FEFE |
[V:4]C,2z2 C,2z2 C,2z2 C,2z2 |
[V:1]cgzg/=e/ bgzg/e/ f8- |
[V:2]zBBB zBBB zAdc dcBA |
[V:3]z=EEE zEEE zFBA BAGF |
[V:4]C,2z2 C,2z2 F,2z2 F,2z2 |
[V:1]f4 fac'f'2 <d'2c'/b/ a2g2 |
[V:2]zAAA zAAA zGGG zFz=E |
[V:3]zFFF zFFF zFFF zA,zB, |
[V:4]D,2z2 A,,2z2 B,,2z2 C,2C,2 |
[V:1]f2z2 >=E2zB AFFF zEzb |
[V:2]F2z2 >G,2z=E FA,A,A, zG,z=e |
[V:3]A,4 c2C2 F4 c2C2 |
[V:4]F,4 C2C,2 F,4 C2C,2 |
[V:1]zazf zgz=e f4 z4 |
[V:2]zfzA zBzG F4 z4 |
[V:3]F2d2 B2c2 F2C2 F,4 |
[V:4]F,2D2 B,2C2 F,2C,2 F,,4 |
[V:1]B2>F2 B>Fd>A B2>F2 B2z2 |
[V:2]B2>F2 B>Fd>A B2>F2 B>FD3/B,/ |
[V:3]B2>F2 B>Fd>A B2>F2 B>FD3/B,/ |
[V:4]B,2>F,2 B,>F,D>A, B,2>F,2 B,>F,D,3/B,,/ |
[V:1]_a8 g2>a2 b2e'b |
[V:2]B,FFF zFFF zEEE zeee |
[V:3]B,B,B,B, zB,B,B, zB,B,_A, G,GGG |
[V:4]D,2z2 D,2z2 E,2z2 E,2z2 |
[V:1]c'3b/_a/ g2(3afd e2z>B, E>B,G3/D/ |
[V:2]zeee zezd e2zB, E>B,G3/D/ |
[V:3]zFFF zEzF E2zB, E>B,G3/D/ |
[V:4]_A,2z2 B,2B,,2 E,2zB,, E,>B,,G,3/D,/ |
[V:1]E2>G2 _A>Bc>d g8 |
[V:2]E2>G2 _A>Bc>d eccc z^ccc |
[V:3]E2>G2 _A>Bc>d eGGG zGGG |
[V:4]E,2>G,2 _A,>B,C>D E2z2 E,2z2 |
[V:1]^f2>g2 a3b/c'/ b/a/g/a/g4 =f2 |
[V:2]zddd zddd zBBB zBBB |
[V:3]zAAA z^FFA zDDD z_DDD |
[V:4]D,2z2 D,2z2 G,2z2 B,2z2 |
[V:1]=e2>_d'2 d'2c'b _agf>c' c'2b3/a/ |
[V:2]zBBB zBBG z_AAA zAAF |
[V:3]zCCC zCCC zCCC zB,B,B, |
[V:4]C2z2 =E,2z2 F,2z2 D,2z2 |
[V:1]gfe2 [g2B2E2]zg/b/ bfzb/d/ fezc'/e/ |
[V:2]zGGG zBBB zBBB zBzA |
[V:3]zB,B,B, zGGG zFFF zFzF |
[V:4]E,2z2 E2z2 D2z2 C2F,2 |
[V:1]edzb/f/ gecB F4 z4 |
[V:2]zBBB zBBB AFFF FEDC |
[V:3]zFFD zCCC CA,A,A, A,EDC |
[V:4]B,2B,,2 E,2=E,2 F,4 F,_E,D,C, |
[V:1]b4 B2d2 (3:2:2f2-f//g/f/e/d4 |
[V:2]B,FFF zFFF zAAA zBBB |
[V:3]B,DDD zDDD zCCC zFFF |
[V:4]B,,2z2 B,,2z2 F,2z2 B,,2z2 |
[V:1]g4 G2ec (3:2:2A2-A//c/B/A/B4 |
[V:2]zGGG zGGG zEEE zDDD |
[V:3]zB,B,B, zEEE zCCC zB,B,B, |
[V:4]E,2z2 E,2z2 F,2z2 B,,2z2 |
[V:1]Aczc/A/ eczc/A/ BFFF FFFF |
[V:2]zEEE zEEE zDED EDED |
[V:3]zA,A,A, zA,A,A, zB,CB, CB,CB, |
[V:4]F,2z2 F,2z2 F,2z2 F,2z2 |
[V:1]FBzd/B/ fdzd/B/ cFFF FFFF |
[V:2]zDDD zDDD zCDC DCDC |
[V:3]zB,B,B, zB,B,B, zA,B,A, B,A,B,A, |
[V:4]F,2z2 F,2z2 F,2z2 F,2z2 |
[V:1]Fczc/A/ eczc'/a/ b8- |
[V:2]zEEE zeee zdgf gfed |
[V:3]zA,A,A, zAAA zBed edcB |
[V:4]F,2z2 F,2z2 B,2z2 B,2z2 |
[V:1]b4- b/a/b/c'/d'/b/a/b/ g3f/e/ d2c2 |
[V:2]zddd zddd zccc zBzA |
[V:3]zBBB zBBB zBBB zDzE |
[V:4]G,2z2 D,2z2 E,2z2 F,2F,2 |
[V:1]B2z2 >c2zE DB,B,B, zAze |
[V:2]B2z2 >E2zA, B,B,B,B, zCzA |
[V:3]D4 F,2F2 B,D,D,D, F2F,2 |
[V:4]B,,4 F,2F,,2 B,,4 F,2F,,2 |
[V:1]zdzB zczA B4 z4 |]
[V:2]zBzD zEzC B,4 z4 |]
[V:3]B,2G2 E2F2 B,2F,2 B,4 |]
[V:4]B,,2G,2 E,2F,2 B,,2B,2 B,,4 |]

